icons/plexis/48/ktorrent.svg

<svg viewBox="0 0 48 48" xmlns="http://www.w3.org/2000/svg" xmlns:xlink="http://www.w3.org/1999/xlink">
  <linearGradient id="a" gradientTransform="matrix(0 -1 1 0 -.0000015 47.999998)" gradientUnits="userSpaceOnUse" x1="1" x2="47">
    <stop offset="0" stop-color="#599cd2"/>
    <stop offset="1" stop-color="#6aa6d6"/>
  </linearGradient>
  <path d="m47 24c0 22.703-.297 23-23 23-22.703 0-23-.297-23-23 0-22.703.297-23 23-23 22.703 0 23 .297 23 23z" fill="url(#a)"/>
  <g transform="matrix(3.543307 0 0 3.543307 -.10019653 .00059145)">
    <path d="m5.644 4.092c0-.282.141-.423.423-.423h1.976c.282 0 .423.141.423.423v3.246h1.411c.282 0 .282 0 0 .282l-2.54 2.54c-.282.282-.282.282-.564 0l-2.54-2.54c-.282-.282-.282-.282 0-.282h1.411" opacity=".1"/>
    <path d="m5.362 3.81c0-.282.141-.423.423-.423h1.976c.282 0 .423.141.423.423v3.246h1.411c.282 0 .282 0 0 .282l-2.54 2.54c-.282.282-.282.282-.564 0l-2.54-2.54c-.282-.282-.282-.282 0-.282h1.411" fill="#dce2eb"/>
  </g>
</svg>

<svg xmlns="http://www.w3.org/2000/svg" viewBox="0 0 48 48">
 <defs>
  <linearGradient id="linearGradient3764" x1="1" x2="47" gradientUnits="userSpaceOnUse" gradientTransform="matrix(0,-1,1,0,-1.5e-6,47.999998)">
   <stop style="stop-color:#599cd2;stop-opacity:1"/>
   <stop offset="1" style="stop-color:#6aa6d6;stop-opacity:1"/>
  </linearGradient>
 </defs>
 <g>
  
  
  
 </g>
 <g>
  <path d="m 47,24 C 47,46.703 46.703,47 24,47 1.297,47 1,46.703 1,24 1,1.297 1.297,1 24,1 46.703,1 47,1.297 47,24 z" style="fill:url(#linearGradient3764);fill-opacity:1"/>
 </g>
 <g>
  
 </g>
 <g transform="matrix(3.543307,0,0,3.543307,-0.10019653,5.914495e-4)">
  <path d="m 5.644,4.092 c 0,-0.282 0.141,-0.423 0.423,-0.423 l 1.976,0 c 0.282,0 0.423,0.141 0.423,0.423 l 0,3.246 1.411,0 c 0.282,0 0.282,0 0,0.282 l -2.54,2.54 c -0.282,0.282 -0.282,0.282 -0.564,0 L 4.233,7.62 C 3.951,7.338 3.951,7.338 4.233,7.338 l 1.411,0" style="fill:#000;opacity:0.1;fill-opacity:1;stroke:none;fill-rule:nonzero"/>
  <path d="m 5.362,3.81 c 0,-0.282 0.141,-0.423 0.423,-0.423 l 1.976,0 c 0.282,0 0.423,0.141 0.423,0.423 l 0,3.246 1.411,0 c 0.282,0 0.282,0 0,0.282 l -2.54,2.54 c -0.282,0.282 -0.282,0.282 -0.564,0 L 3.951,7.338 C 3.669,7.056 3.669,7.056 3.951,7.056 l 1.411,0" style="fill:#dce2eb;fill-opacity:1;stroke:none;fill-rule:nonzero"/>
 </g>
</svg>
